public/avatar/hat/24.svg

<svg xmlns:xlink="http://www.w3.org/1999/xlink" height="92.9" width="100.7" xmlns="http://www.w3.org/2000/svg"><use height="13.75" transform="translate(28.55 44.05)" width="20.85" xlink:href="#a"/><defs><g id="a" fill-rule="evenodd"><path d="M-3.6-4.7.15-3.25V2.3q-3.45 0-6.7-.95l.15-.8.65-2.25.4-1 1-1.35.75-.65" transform="translate(10.1 5.7)"/><path d="M3.55-4.6.15-3.25-3.6-4.7l.2-.15q1.15-.85 2.75-.85l2.95.45 1.25.65M-6.4.55l-.15.8-.2 1.6.05.2q7.4 2.45 13.55 0v-1.8q3.9-1.4 3.9.9-.05 2.25-3.7 4.35-3.7 2.15-9.7 1.15-6-1.05-7.05-3.95-1.1-2.95.75-3.15l2.55-.1" fill="#333" transform="translate(10.1 5.7)"/><path d="m.15 2.3 6.7-.95v1.8Q.7 5.6-6.7 3.15l-.05-.2.2-1.6q3.25.95 6.7.95" fill="#999" transform="translate(10.1 5.7)"/><path d="m.15-3.25 3.4-1.35.75.55.45.35q1.05.9 2.1 5.05l-6.7.95v-5.55" fill="#666" transform="translate(10.1 5.7)"/></g></defs></svg>

<?xml version="1.0" encoding="UTF-8" standalone="no"?>
<svg xmlns:xlink="http://www.w3.org/1999/xlink" height="92.9px" width="100.7px" xmlns="http://www.w3.org/2000/svg">
  <g transform="matrix(1.0, 0.0, 0.0, 1.0, 38.65, 49.75)">
    <use height="13.75" transform="matrix(1.0, 0.0, 0.0, 1.0, -10.1, -5.7)" width="20.85" xlink:href="#shape0"/>
  </g>
  <defs>
    <g id="shape0" transform="matrix(1.0, 0.0, 0.0, 1.0, 10.1, 5.7)">
      <path d="M-3.6 -4.7 L0.15 -3.25 0.15 2.3 Q-3.3 2.3 -6.55 1.35 L-6.4 0.55 -5.75 -1.7 -5.35 -2.7 -4.35 -4.05 -3.6 -4.7" fill="#000000" fill-rule="evenodd" stroke="none"/>
      <path d="M3.55 -4.6 L0.15 -3.25 -3.6 -4.7 -3.4 -4.85 Q-2.25 -5.7 -0.65 -5.7 L2.3 -5.25 3.55 -4.6 M-6.4 0.55 L-6.55 1.35 -6.75 2.95 -6.7 3.15 Q0.7 5.6 6.85 3.15 L6.85 1.6 6.85 1.35 Q10.75 -0.05 10.75 2.25 10.7 4.5 7.05 6.6 3.35 8.75 -2.65 7.75 -8.65 6.7 -9.7 3.8 -10.8 0.85 -8.95 0.65 L-6.4 0.55" fill="#333333" fill-rule="evenodd" stroke="none"/>
      <path d="M0.15 2.3 L6.85 1.35 6.85 1.6 6.85 3.15 Q0.7 5.6 -6.7 3.15 L-6.75 2.95 -6.55 1.35 Q-3.3 2.3 0.15 2.3" fill="#999999" fill-rule="evenodd" stroke="none"/>
      <path d="M0.15 -3.25 L3.55 -4.6 4.3 -4.05 4.75 -3.7 Q5.8 -2.8 6.85 1.35 L0.15 2.3 0.15 -3.25" fill="#666666" fill-rule="evenodd" stroke="none"/>
    </g>
  </defs>
</svg>
